!!!!SEGMENT: pl-kk--kk-i-338--003_gorczycki-grzegorz-gerwazy--invicte-martyr-unicum.krn
!!!cenid: 17xx:1940
!!!COM: Gorczycki, Grzegorz Gerwazy
!!!COM-rismID: pe30009207
!!!CDT: ~1666-1734/04/30
!!!CNT: Polish
!!!OTL: Invicte Martyr unicum
!!!PDT:
!!!AGN: Sacred
!!!SMS-siglum: PL-Kk
!!!SMS-shelfmark: Kk.I.338
!!!SMS-shelfwork: 003 W
!!!SMS-variant:
!!!SMS-altvar:
!!!NIFC-rismSourceID: 1001143668
!!!NIFC-islandoraID: pl-kk:5647
!!!URL-pdf-islandora: https://repozytorium.nifc.pl/islandora/object/pl-kk%3A5647/datastream/PDF/view
!!!URL-scan: https://polish.musicsources.pl/pl/lokalizacje/galeria/rekopisy/5955 @EN{Scan on Polish Music Sources Website} @PL{Skany w portalu Dziedzictwo Muzyki Polskiej w otwartym dostępie}
!!!ONB-nifc: UWAGA: utwory w zbiorze: 1. Deus tuorum militum, 2. Rex gloriose martyrum,
!!!AIN: 1 alto 2 empty 1 tenor 1 vox
!!!key: a
**kern	**text	**text	**kern	**fba	**text	**text	**kern	**text	**text	**kern	**text	**text	**kern	**text	**text
*part5	*part5	*part5	*part4	*	*part4	*part4	*part3	*part3	*part3	*part2	*part2	*part2	*part1	*part1	*part1
*staff5	*staff5	*staff5	*staff4	*	*staff4	*staff4	*staff3	*staff3	*staff3	*staff2	*staff2	*staff2	*staff1	*staff1	*staff1
*Iempty	*	*	*Iempty	*	*	*	*Itenor	*	*	*Ialto	*	*	*Ivox	*	*
*I"Baſso Ripieno.	*	*	*I"Baſso.	*	*	*	*I"Tenore	*	*	*I"Alto.	*	*	*I"Canto	*	*
*I'B rip	*	*	*I'B	*	*	*	*I'T	*	*	*I'A	*	*	*I'S	*	*
*Ibass	*	*	*Ibass	*	*	*	*Itenor	*	*	*Ialto	*	*	*Isoprn	*	*
*ICvox	*	*	*ICvox	*	*	*	*ICvox	*	*	*ICvox	*	*	*ICvox	*	*
*IGripn	*	*	*	*	*	*	*	*	*	*	*	*	*	*	*
*mI"Basso ripieno	*	*	*mI"Basso	*	*	*	*	*	*	*mI"Alto	*	*	*mI"Soprano	*	*
*clefF4	*	*	*clefF4	*	*	*	*clefC4	*	*	*clefC3	*	*	*clefC1	*	*
*	*	*	*	*	*	*	*mclefGv2	*	*	*mclefG2	*	*	*mclefG2	*	*
*k[]	*	*	*k[]	*	*	*	*k[]	*	*	*k[]	*	*	*k[]	*	*
*a:	*	*	*a:	*	*	*	*a:	*	*	*a:	*	*	*a:	*	*
*M3/2	*	*	*M3/2	*	*	*	*M3/2	*	*	*M3/2	*	*	*M3/2	*	*
=1	=1	=1	=1	=1	=1	=1	=1	=1	=1	=1	=1	=1	=1	=1	=1
*xywh-#27:507,423,3711,1074	*	*	*xywh-#25:466,388,3910,887	*	*	*	*xywh-#23:531,416,3697,906	*	*	*xywh-#21:495,364,3851,812	*	*	*xywh-#19:525,447,3764,1057	*	*
*2\right	*	*	*2\right	*	*	*	*2\right	*	*	*2\right	*	*	*2\right	*	*
!LO:TX:a:t=De Uno Martyre:mod=	!	!	!LO:TX:a:t=De Uno Martyre	!	!	!	!LO:TX:a:t=De Uno Martyre.:mod=	!	!	!LO:TX:a:t=De Martyre Uno.:mod=	!	!	!LO:TX:a:t=De Uno Martyre.:mod=	!	!
2A\	1. In-	3. So-	2A\	.	1. In-	3. So-	2c\	1. In-	3. So-	2e\	1. In-	3. So-	2a\	1. In-	3. So-
2A\	-vi-	-lu-	2A\	.	-vi-	-lu-	2c\	-vi-	-lu-	2e\	-vi-	-lu-	2a\	-vi-	-lu-
2G\	-cte	-ta	2G\	.	-cte	-ta	2B\	-cte	-ta	2e\	-cte	-ta	2bn\	-cte	-ta
=2	=2	=2	=2	=2	=2	=2	=2	=2	=2	=2	=2	=2	=2	=2	=2
1F	Mar-	sunt	1F	.	Mar-	sunt	(4A\	Mar-	sunt	1a	Mar-	sunt	(4cc\	Mar-	sunt
.	.	.	.	.	.	.	4G\	.	.	.	.	.	4b\	.	.
.	.	.	.	.	.	.	4A\	.	.	.	.	.	4cc\	.	.
.	.	.	.	.	.	.	4B\)	.	.	.	.	.	4dd\)	.	.
!	!	!	!	!	!LO:MO:mod=-tyr	!	!	!	!	!	!	!	!	!	!
2E\	-tyr	jam	2E\	.	-tur	jam	2c\	-tyr	jam	2g\	-tyr	jam	2ee\	-tyr	jam
=3	=3	=3	=3	=3	=3	=3	=3	=3	=3	=3	=3	=3	=3	=3	=3
2.G\	u-	vin-	2.G\	.	u-	vin-	2.B\	u-	vin-	2.g\	u-	vin-	2.dd\	u-	vin-
4G\	-ni-	-cu-	4G\	.	-ni-	-cu-	4B\	-ni-	-cu-	4g\	-ni-	-cu-	4dd\	-ni-	-cu-
2C/	-cum	-la	2C/	.	-cum	-la	2c\	-cum	-la	2g\	-cum	-la	2cc\	-cum	-la
=4	=4	=4	=4	=4	=4	=4	=4	=4	=4	=4	=4	=4	=4	=4	=4
2c\	Pa-	Tu-	2c\	.	Pa-	Tu-	2e\	Pa-	Tu-	2g\	Pa-	Tu-	2cc\	Pa-	Tu-
2c\	-tris	-i	2c\	.	-tris	-i	2e\	-tris	-i	2.g\	-tris	-i	2g/	-tris	-i
2B\	se-	sa-	2B\	.	se-	sa-	2d\	se-	sa-	.	.	.	2g/	se-	sa-
.	.	.	.	.	.	.	.	.	.	4d\	se-	sa-	.	.	.
=5	=5	=5	=5	=5	=5	=5	=5	=5	=5	=5	=5	=5	=5	=5	=5
!	!	!	!	!	!	!	!	!	!	!	!	!	!LO:SIC:s=(4a	!	!
1A	-cu-	-cra-	1A	.	-cu-	-cra-	1c	-cu-	-cra-	(4e\	-cu-	-cra-	4a\	-cu-	-cra-
.	.	.	.	.	.	.	.	.	.	4d\	.	.	4b\	.	.
.	.	.	.	.	.	.	.	.	.	4e\	.	.	4cc\	.	.
!	!	!	!	!	!	!	!	!	!	!	!	!	!LO:SIC:s=4a)	!	!
.	.	.	.	.	.	.	.	.	.	4f\)	.	.	4a\	.	.
!	!	!	!	!	!	!	!	!LO:MO:mod=-tus	!	!	!LO:MO:mod=-tus	!	!	!LO:MO:mod=-tus	!
2G\	-tus	-ti	2G\	.	-tus	-ti	2d\	-t(us)	-ti	2g\	-t(us)	-ti	2b\	-t(us)	-ti
=6	=6	=6	=6	=6	=6	=6	=6	=6	=6	=6	=6	=6	=6	=6	=6
!	!	!	!	!	!	!LO:MO:mod=cor-	!	!	!LO:MO:mod=cor-	!LO:TX:t=P:problem=# above:mod=	!	!	!	!	!
2.D\	Fi-	cor-	2.D\	.	Fi-	Cor-	2.d\	Fi-	Cor-	2.f#X\	Fi-	cor-	2.a\	Fi-	cor-
4D\	-li-	-po-	4D\	.	-li-	-po-	4d\	-li-	-po-	4f#\	-li-	-po-	4a\	-li-	-po-
4G,\	-um	-ris	4G,\	.	-um	-ris	4d,\	-um	-ris	4g,\	-um	-ris	4g,\	-um	-ris
!	!	!	!	!	!	!	!	!	!	!	!LO:MO:mod=vi-	!	!	!	!
4G\	vi-	nos	4G\	.	vi-	nos	4d\	vi-	nos	4g\	Vi-	nos	4b\	vi-	nos
!	!	!	!LO:LB:g=original	!	!	!	!LO:LB:g=original	!	!	!LO:LB:g=original	!	!	!LO:LB:g=original	!	!
=7	=7	=7	=7	=7	=7	=7	=7	=7	=7	=7	=7	=7	=7	=7	=7
*	*	*	*xywh-#25:489,1092,3903,849	*	*	*	*xywh-#23:547,1029,3691,900	*	*	*xywh-#21:488,961,3851,697	*	*	*xywh-#19:514,1292,3757,781	*	*
!	!	!	!	!	!	!	!LO:TX:a:t=d:mod=	!	!	!	!	!	!	!	!
2.G\	-ctis	sol-	2.G\	.	-ctis	sol-	2.d,\	-ctis	sol-	2.g\	-ctis	sol-	2.b\	-ctis	sol-
4G\	tri-	-ve	4G\	.	tri-	-ve	4d\	tri-	-ve	4g\	tri-	-ve	4b\	tri-	-ve
4F#X\	-um-	vin-	4F#X\	.	-um-	vin-	4d\	-um-	vin-	4a\	-um-	vin-	4dd\	-um-	vin-
*custos:E	*	*	*	*	*	*	*	*	*	*	*	*	*	*	*
4F#\	-phas	-clis	4F#\	.	-phas	-clis	4d\	-phas	-clis	4a\	-phas	-clis	4dd\	-phas	-clis
!LO:LB:g=original	!	!	!	!	!	!	!	!	!	!	!	!	!	!	!
=8	=8	=8	=8	=8	=8	=8	=8	=8	=8	=8	=8	=8	=8	=8	=8
*xywh-#27:510,1224,3714,807	*	*	*	*	*	*	*	*	*	*	*	*	*	*	*
2.E\	ho-	sae-	2.E\	6\	ho-	sae-	2.c#X\	ho-	sae-	2.g\	ho-	sae-	2.ee\	ho-	sae-
4E\	-sti-	-cu-	4E\	.	-sti-	-cu-	4c#\	-ſti-	-cu-	4g\	-sti-	-cu-	4ee\	-sti-	-cu-
!	!	!	!	!	!LO:MO:mod=-bus	!	!	!LO:MO:mod=-bus	!	!	!LO:MO:mod=-bus	!	!	!LO:MO:mod=-bus	!
2D\	-bus	-li	2D\	.	-b(us)	-li	2d\	-b(us)	-li	2f#X\	-b(us)	-li	2a\	-b(us)	-li
=9	=9	=9	=9	=9	=9	=9	=9	=9	=9	=9	=9	=9	=9	=9	=9
!	!	!	!	!	!	!	!	!LO:MO:mod=Vi-	!	!	!	!	!	!LO:MO:mod=Vi-	!
2D\	Vi-	do-	2D\	#	Vi-	do-	2A\	Vic-	do-	2f#X\	Vi-	do-	2dd\	Vic-	do-
!	!	!	!	!	!	!	!	!LO:MO:mod=-ctor	!	!	!	!	!	!LO:MO:mod=-ctor	!
2D\	-ctor	-no	2D\	.	-ctor	-no	2A\	-tor	-no	2f#\	-ctor	-no	2dd\	-tor	-no
!	!	!	!	!	!	!	!	!	!	!	!	!	!	!	!LO:MO:mod=su-
2D\	fru-	su-	2D\	.	fru-	su-	2A\	fru-	su-	2f#\	fru-	su-	2dd\	fru-	Su-
=10	=10	=10	=10	=10	=10	=10	=10	=10	=10	=10	=10	=10	=10	=10	=10
1G	-ens	-per-	1G	.	-ens	-per-	1B,	-ens	-per-	1g	-ens	-per-	1dd	-ens	-per-
2F#X\	cae-	-ni	2F#X\	.	cae-	-ni	2d\	cae-	-ni	2a\	cae-	-ni	2dd\	cae-	-ni
=11	=11	=11	=11	=11	=11	=11	=11	=11	=11	=11	=11	=11	=11	=11	=11
2.A\	-le-	Nu-	2.A\	.	-le-	Nu-	2.c#X\	-le-	Nu-	2.a\	-le-	Nu-	2.ee\	-le-	Nu-
4A\	-ſti-	-mi-	4A\	.	-ſti-	-mi-	4c#\	-ſti-	-mi-	4e\	-sti-	-mi-	4ee\	-sti-	-mi-
!	!LO:MO:mod=-bus	!	!	!	!	!	!	!	!	!	!	!	!	!	!
2D/	-b(us)	-nis	2D\	.	-bus	-nis	2d\	-bus	-nis	2f#X\	-bus	-nis	2dd\	-bus	-nis
=12	=12	=12	=12	=12	=12	=12	=12	=12	=12	=12	=12	=12	=12	=12	=12
!	!LO:MO:mod=Vi-	!	!	!	!LO:MO:mod=Vi-	!	!	!LO:MO:mod=Vi-	!	!	!	!	!	!LO:MO:mod=Vi-	!
2G\	vi-	Do-	2G\	.	vi-	do-	2B\	Vic-	do-	2g\	Vi-	do-	2dd\	Vic-	do-
!	!	!	!	!	!	!	!	!LO:MO:mod=-ctor	!	!	!	!	!	!LO:MO:mod=-ctor	!
2G\	-ctor	-no	2G\	.	-ctor	-no	2B\	-tor	-no	2g\	-ctor	-no	2dd\	-tor	-no
2E\	fru-	su-	2E\	.	fru-	su-	2cn\	fru-	su-	2g\	fru-	su-	2ee\	fru-	Su-
=13	=13	=13	=13	=13	=13	=13-	=13	=13	=13	=13	=13	=13	=13	=13	=13
1Fn	-ens	-per-	1Fn	.	-ens	-per-	1A	-ens	-per-	1fn	-ens	-per-	1cc	-ens	-per-
2D\	cae-	-ni	2D\	.	cae-	-ni	2A/	cae-	-ni	2f\	cae-	-ni	2dd\	cae-	-ni
!	!	!	!LO:LB:g=original	!	!	!	!LO:LB:g=original	!	!	!LO:LB:g=original	!	!	!	!	!
=14	=14	=14	=14	=14	=14	=14	=14	=14	=14	=14	=14	=14	=14	=14	=14
*	*	*	*xywh-#25:489,1696,3906,846	*	*	*	*xywh-#23:553,1580,3704,878	*	*	*xywh-#21:470,1439,3847,715	*	*	*	*	*
1E	-le-	Nu-	1E	.	-le-	Nu-	1A	-le-	Nu-	1e	-le-	Nu-	1b	-le-	Nu-
2E\	-sti-	-mi-	2E\	.	-sti-	-mi-	2G#X/	-ſti-	-mi-	2e\	-sti-	-mi-	2b\	-ſti-	-mi-
!	!	!	!	!	!	!	!	!	!	!	!	!	!LO:LB:g=original	!	!
=15	=15	=15	=15	=15	=15	=15	=15	=15	=15	=15	=15	=15	=15	=15	=15
*	*	*	*	*	*	*	*	*	*	*	*	*	*xywh-#19:525,1838,3742,755	*	*
2AA,/	-bus	-nis	2AA,/	.	-bus	-nis	2A,\	-bus	-nis	1e,	-bus	-nis	1cc#X,	-bus	-nis
!	!	!	!	!	!	!	!LO:MO:mod=2A	!	!	!	!	!	!	!	!
2A\	cae-	Nu-	2A\	.	cae-	Nu-	1A	cae-	Nu-	.	.	.	.	.	.
!	!	!	!	!	!	!	!LO:MO:null:mod=2B	!	!	!	!	!	!	!	!
2G#X\	.	.	2G#X\	.	.	.	.	.	.	2e\	cae-	Nu-	2b\	cae-	Nu-
=16-	=16	=16	=16	=16	=16	=16	=16	=16	=16	=16	=16	=16	=16	=16	=16
1A	-le-	.	1A	.	-le-	.	1cn	-le-	.	1e	-le-	.	1a	-le-	.
2A\	-sti-	-mi-	2A\	.	-sti-	-mi-	2c\	-sti-	-mi-	2e\	-sti-	-mi-	2a\	-ſti-	-mi-
=17	=17	=17	=17	=17	=17	=17	=17	=17	=17	=17	=17	=17	=17	=17	=17
!	!	!	!	!	!	!	!	!	!	!	!LO:MO:mod=-bus.	!LO:MO:mod=-nis.	!	!	!
0E;	-bus.	-nis.	0E;	.	-bus.	-nis.	0B;	-bus.	-nis.	0e;	-bus	-nis	0g#X;	-bus.	-nis.
!LO:LB:g=original	!	!	!	!	!	!	!	!	!	!	!	!	!	!	!
=18||	=18||	=18||	=18||	=18||	=18||	=18||	=18||	=18||	=18||	=18||	=18||	=18||	=18||	=18||	=18||
*xywh-#27:531,1786,3704,712	*	*	*	*	*	*	*	*	*	*	*	*	*	*	*
*M3/2	*	*	*M3/2	*	*	*	*M3/2	*	*	*M3/2	*	*	*M3/2	*	*
2C/	2. Tu-	.	2C/	.	2. Tu-	.	2c\	2. Tu-	.	2g\	2. Tu-	.	2ee\	2. Tu-	.
2C/	-i	.	2C/	.	-i	.	2c\	-i	.	2g\	-i	.	2ee\	-i	.
2C/	pre-	.	2C/	.	pre-	.	2c\	pre-	.	2g\	pre-	.	2ee\	pre-	.
=19	=19	=19	=19	=19	=19	=19	=19	=19	=19	=19	=19	=19	=19	=19	=19
1F	-ca-	.	1F	.	-ca-	.	(4A\	-ca-	.	1a	-ca-	.	(4cc\	-ca-	.
.	.	.	.	.	.	.	4G\	.	.	.	.	.	4b\	.	.
.	.	.	.	.	.	.	4A\	.	.	.	.	.	4cc\	.	.
.	.	.	.	.	.	.	4B\)	.	.	.	.	.	4dd\)	.	.
!	!	!	!	!	!	!	!	!LO:MO:mod=-tus	!	!	!LO:MO:mod=-tus	!	!	!LO:MO:mod=-tus	!
2E\	-tus	.	2E\	.	-tus	.	2c\	-tûs	.	2g\	-tûs	.	2ee\	-tûs	.
=20	=20	=20	=20	=20	=20	=20	=20	=20	=20	=20	=20	=20	=20	=20	=20
1G	mu-	.	1G	.	mu-	.	1c	mu-	.	1g	mu-	.	1dd	mu-	.
2G\	-ne-	.	2GG/	.	-ne-	.	2B\	-ne-	.	2g\	-ne-	.	2dd\	-ne-	.
=21	=21	=21	=21	=21	=21	=21	=21	=21	=21	=21	=21	=21	=21	=21	=21
1C,	-re	.	1C,	.	-re	.	1c,	-re	.	1g,	-re	.	1cc,	-re	.
2C/	noſ-	.	2C/	.	no-	.	2c\	no-	.	2e\	no-	.	2g\	no-	.
!	!	!	!LO:LB:g=original	!	!	!	!LO:LB:g=original	!	!	!LO:LB:g=original	!	!	!	!	!
=22	=22	=22	=22	=22	=22	=22	=22	=22	=22	=22	=22	=22	=22	=22	=22
*	*	*	*xywh-#25:500,2244,3914,797	*	*	*	*xywh-#23:566,2159,3682,837	*	*	*xywh-#21:477,1939,3847,694	*	*	*	*	*
2.F\	-trum	.	2.F,\	.	-strum	.	2.c\	-strum	.	2.fn,\	-strum	.	2.a\	-strum	.
4F\	re-	.	4F\	.	re-	.	4c\	re-	.	4f\	re-	.	4a\	re-	.
2F\	-a-	.	2F\	.	-a-	.	2c\	-a-	.	2f\	-a-	.	2a\	-a-	.
!	!	!	!	!	!	!	!	!	!	!	!	!	!LO:LB:g=original	!	!
=23	=23	=23	=23	=23	=23	=23	=23	=23	=23	=23	=23	=23	=23	=23	=23
*	*	*	*	*	*	*	*	*	*	*	*	*	*xywh-#19:529,2316,3753,785	*	*
(2F\	-tum	.	(2F\	.	-tum	.	2d,\	-tum	.	2f,\	-ctum	.	2a\	-tum	.
2G\)	.	.	2G\)	.	.	.	2.d\	di-	.	2.e\	di-	.	2b-X\	di-	.
4A\	di-	.	4A\	.	di-	.	.	.	.	.	.	.	2a\	-lu-	.
4AA/	-lu-	.	4AA/	.	-lu-	.	4c#X\	-lu-	.	4e\	-lu-	.	.	.	.
=24	=24	=24	=24	=24	=24	=24	=24	=24	=24	=24	=24	=24	=24	=24	=24
1D,	-e	.	1D,	.	-e	.	1d,	-e	.	1f#X,	-e	.	1a,	-e	.
2D\	ar-	.	2D\	.	ar-	.	2d\	ar-	.	2f#\	ar-	.	2a\	ar-	.
!LO:LB:g=original	!	!	!	!	!	!	!	!	!	!	!	!	!	!	!
=25	=25	=25	=25	=25	=25	=25	=25	=25	=25	=25	=25	=25	=25	=25	=25
*xywh-#27:549,2249,3700,758	*	*	*	*	*	*	*	*	*	*	*	*	*	*	*
1G	-cens	.	1G	.	-cens	.	1d	-cens	.	1g	-cens	.	1bn	-cens	.
2A\	ma-	.	2A\	.	ma-	.	2c\	ma-	.	2e\	ma-	.	(4b\	ma-	.
.	.	.	.	.	.	.	.	.	.	.	.	.	4cc\)	.	.
=26	=26	=26	=26	=26	=26	=26	=26	=26	=26	=26	=26	=26	=26	=26	=26
1G	-li	.	1G	.	-li	.	1B,	-li	.	1g	-li	.	1dd	-li	.
2F#X\	con-	.	2F#X\	.	con-	.	2d\	con-	.	2a\	con-	.	2dd\	con-	.
=27	=27	=27	=27	=27	=27	=27	=27	=27	=27	=27	=27	=27	=27	=27	=27
2.E\	-ta-	.	2.E\	7	-ta-	.	2.d\	-ta-	.	2.g\	-ta-	.	2.ee\	-ta-	.
.	.	.	.	6\	.	.	.	.	.	.	.	.	.	.	.
4E\	-gi-	.	4E\	.	-gi-	.	4c#X\	-gi-	.	4g\	-gi-	.	4ee\	-gi-	.
2D\	-um	.	2D\	#	-um	.	2d\	-um	.	2f#X\	-um	.	2a\	-um	.
=28	=28	=28	=28	=28	=28	=28	=28	=28	=28	=28	=28	=28	=28	=28	=28
!	!	!	!	!	!	!	!	!	!	!	!LO:MO:mod=vi-	!	!	!LO:MO:mod=vi-	!
2D\	vi-	.	2D\	.	vi-	.	2d\	vi-	.	2f#X\	Vi-	.	2a\	Vi-	.
2.D\	-tae	.	2.D\	.	-tae	.	2.d\	-tae	.	2.f#\	-tae	.	2.a\	-tae	.
4D\	re-	.	4D\	.	re-	.	4d\	re-	.	4f#\	re-	.	4a\	re-	.
=29	=29	=29	=29	=29	=29	=29	=29	=29	=29	=29	=29	=29	=29	=29	=29
1G	-pel-	.	1G	.	-pel-	.	1d	-pel-	.	1g	-pel-	.	1bn	-pel-	.
2G\	-lens	.	2G\	.	-lens	.	2d\	-lens	.	2g\	-lens	.	2b\	-lens	.
!	!	!	!LO:LB:g=original	!	!	!	!LO:LB:g=original	!	!	!LO:LB:g=original	!	!	!	!	!
=30	=30	=30	=30	=30	=30	=30	=30	=30	=30	=30	=30	=30	=30	=30	=30
*	*	*	*xywh-#25:500,2811,3906,794	*	*	*	*xywh-#23:556,2707,3672,808	*	*	*xywh-#21:495,2421,3754,694	*	*	*	*	*
*	*ij	*	*	*	*	*	*	*	*	*	*	*	*	*	*
!	!	!	!	!	!	!	!	!LO:MO:mod=vi-	!	!	!LO:MO:mod=vi-	!	!	!LO:MO:mod=vi-	!
2E\	vi-	.	2E\	.	vi-	.	2e\	Vi-	.	2g#X\	Vi-	.	2b\	Vi-	.
2E\	-tae	.	2E\	.	-tae	.	2.e\	-tae	.	2.g#\	-tae	.	2.b\	-tae	.
2E\	re-	.	2E\	.	re-	.	.	.	.	.	.	.	.	.	.
*	*	*	*	*	*	*	*	*	*	*	*	*	*custos:cc	*	*
.	.	.	.	.	.	.	4e\	re-	.	4g#\	re-	.	4b\	re-	.
!	!	!	!	!	!	!	!	!	!	!	!	!	!LO:LB:g=original	!	!
=31	=31	=31	=31	=31	=31	=31	=31	=31	=31	=31	=31	=31	=31	=31	=31
*	*	*	*	*	*	*	*	*	*	*	*	*	*xywh-#19:537,2854,3312,676	*	*
1A	-pel-	.	1A	.	-pel-	.	1c	-pel-	.	1a	-pel-	.	1cc	-pel-	.
2E\	-lens	.	2E\	.	-lens	.	2c\	-lens	.	2gn\	-lens	.	2ee\	-lens	.
*	*Xij	*	*	*	*	*	*	*	*	*	*	*	*	*	*
=32	=32	=32	=32	=32	=32	=32	=32	=32	=32	=32	=32	=32	=32	=32	=32
2.G\	tae-	.	2.G\	.	tae-	.	2.B\	tae-	.	2.g\	tae-	.	2.dd\	tae-	.
4GG/	-di-	.	4G\	.	-di-	.	4B\	-di-	.	4g\	-di-	.	4dd\	-di-	.
2C/	-um	.	2C/	.	-um	.	2c\	-um	.	2e\	-um	.	2cc\	-um	.
!LO:LB:g=original	!	!	!	!	!	!	!	!	!	!	!	!	!	!	!
=33	=33	=33	=33	=33	=33	=33	=33	=33	=33	=33	=33	=33	=33	=33	=33
*xywh-#27:520,2832,3732,653	*	*	*	*	*	*	*	*	*	*	*	*	*	*	*
!	!LO:MO:mod=vi-	!	!	!	!	!	!	!	!	!	!	!	!	!LO:MO:mod=vi-	!
2C/	Vi-	.	2C/	.	vi-	.	2c\	vi-	.	2e\	vi-	.	2g/	Vi-	.
2.C/	-tae	.	2.C/	.	-tae	.	2c\	-tae	.	2e\	-tae	.	2g/	-tae	.
.	.	.	.	.	.	.	2c\	re-	.	2e\	re-	.	2g/	re-	.
4C/	re-	.	4C/	.	re-	.	.	.	.	.	.	.	.	.	.
=34	=34	=34	=34	=34	=34	=34	=34	=34	=34	=34	=34	=34	=34	=34	=34
1F	-pel-	.	1F	.	-pel-	.	1c	-pel-	.	1fn	-pel-	.	1a	-pel-	.
2D\	-lens	.	2D\	.	-lens	.	2B\	-lens	.	2f\	-lens	.	2a\	-lens	.
=35	=35	=35	=35	=35	=35	=35	=35	=35	=35	=35	=35	=35	=35	=35	=35
1E	tae-	.	1E	.	tae-	.	1B	tae-	.	1e	tae-	.	1a	tae-	.
2E\	-di-	.	2E\	.	-di-	.	2B\	-di-	.	2e\	-di-	.	2g#X/	-di-	.
=36	=36	=36	=36	=36	=36	=36	=36	=36	=36	=36	=36	=36	=36	=36	=36
0AA;	-um.	.	0AA;	.	-um.	.	0c#X;	-um.	.	0e;	-um.	.	0a;	-um.	.
!	!	!	!LO:LB:g=original	!	!	!	!LO:LB:g=original	!	!	!LO:LB:g=original	!	!	!LO:LB:g=original	!	!
=37||	=37||	=37||	=37||	=37||	=37||	=37||	=37||	=37||	=37||	=37||	=37||	=37||	=37||	=37||	=37||
*	*	*	*xywh-#25:518,3333,3892,820	*	*	*	*xywh-#23:550,3264,3710,786	*	*	*xywh-#21:521,2906,3754,730	*	*	*xywh-#19:541,3400,3742,747	*	*
*M3/2	*	*	*M3/2	*	*	*	*M3/2	*	*	*M3/2	*	*	*M3/2	*	*
!	!	!	!	!	!LO:MO:mod=4 De-	!	!	!LO:MO:mod=4 De-	!	!	!LO:MO:mod=4 De-	!	!	!LO:MO:mod=4 De-	!
1A	4. De-	.	1A	.	DE-	.	1c#X	DE-	.	1e	DE-	.	1ee	DE-	.
!	!	!	!	!	!LO:MO:mod=-o	!	!	!LO:MO:mod=-o	!	!	!LO:MO:mod=-o	!	!	!LO:MO:mod=-o	!
2A\	-o	.	2A\	.	-O	.	2c#\	-O	.	2e\	-O	.	2ee\	-O	.
=38	=38	=38	=38	=38	=38	=38	=38	=38	=38	=38	=38	=38	=38	=38	=38
2D\	Pa-	.	2D\	.	Pa-	.	2d\	Pa-	.	2f\	Pa-	.	2dd\	Pa-	.
2D\	-tri	.	2D\	.	-tri	.	2d\	-tri	.	2f\	-tri	.	2a\	-tri	.
2A\	sit	.	2A\	.	sit	.	2cn\	sit	.	2e\	sit	.	2a\	sit	.
=39	=39	=39	=39	=39	=39	=39	=39	=39	=39	=39	=39	=39	=39	=39	=39
1E	glo-	.	1E	.	glo-	.	1B	glo-	.	1e	glo-	.	1g#X	glo-	.
2E\	-ri-	.	2E\	.	-ri-	.	2B\	-ri-	.	2e\	-ri-	.	2g#/	-ri-	.
=40	=40	=40	=40	=40	=40	=40	=40	=40	=40	=40	=40	=40	=40	=40	=40
2A,\	-a	.	2A,\	.	-a	.	2c#X,\	-a	.	2e,\	-a	.	2a,\	-a	.
!	!LO:MO:mod=E-	!	!	!	!	!	!	!	!	!	!	!	!	!	!
2AA/	e-	.	2AA/	.	E-	.	2c#\	E-	.	2e\	E-	.	2a\	E-	.
2AA/	-jus-	.	2AA/	.	-jus-	.	2c#\	-jus-	.	2e\	-jus-	.	2a\	-jus-	.
!LO:LB:g=original	!	!	!	!	!	!	!	!	!	!	!	!	!	!	!
=41	=41	=41	=41	=41	=41	=41	=41	=41	=41	=41	=41	=41	=41	=41	=41
*xywh-#27:520,3285,3725,702	*	*	*	*	*	*	*	*	*	*	*	*	*	*	*
2D\	-que	.	2D\	.	-que	.	2A\	-que	.	2d\	-que	.	2f,/	-que	.
!	!LO:MO:mod=so-	!	!	!	!LO:MO:mod=so-	!	!	!	!	!	!	!	!	!	!
2D\	So-	.	2D\	.	So-	.	2A\	so-	.	2d\	so-	.	2f/	so-	.
2AA/	-li	.	2AA/	.	-li	.	2E/	-li	.	2e\	-li	.	2a\	-li	.
=42	=42	=42	=42	=42	=42	=42	=42	=42	=42	=42	=42	=42	=42	=42	=42
1E	Fi-	.	1E	.	Fi-	.	1G#X	Fi-	.	1e	Fi-	.	1bn	Fi-	.
2E\	-li-	.	2E\	.	-li-	.	2G#/	-li-	.	2e\	-li-	.	2b\	-li-	.
=43	=43	=43	=43	=43	=43	=43	=43	=43	=43	=43	=43	=43	=43	=43	=43
1AA,	-o	.	1AA,	.	-o	.	1A,	-o	.	1e	-o	.	1cc#X,	-o	.
2A\	cum	.	2A\	.	cum	.	2c\	cum	.	2e\	cum	.	2ccn\	cum	.
!	!	!	!	!	!	!	!LO:LB:g=original	!	!	!LO:LB:g=original	!	!	!	!	!
=44	=44	=44	=44	=44	=44	=44	=44	=44	=44	=44	=44	=44	=44	=44	=44
*	*	*	*	*	*	*	*xywh-#23:525,3767,3716,824	*	*	*xywh-#21:542,3395,3758,704	*	*	*	*	*
1A	Spi-	.	1A	.	Spi-	.	1c	Spi-	.	1e	Spi-	.	(4a\	Spi-	.
.	.	.	.	.	.	.	.	.	.	.	.	.	4b\)	.	.
.	.	.	.	.	.	.	.	.	.	.	.	.	(4cc\	-ri-	.
.	.	.	.	.	.	.	.	.	.	.	.	.	4dd\)	.	.
2G#X\	-ri-	.	2G#X\	.	-ri-	.	2B\	-ri-	.	2e\	-ri-	.	2ee\	-tu	.
!	!	!	!LO:LB:g=original	!	!	!	!	!	!	!	!	!	!LO:LB:g=original	!	!
=45	=45	=45	=45	=45	=45	=45	=45	=45	=45	=45	=45	=45	=45	=45	=45
*	*	*	*xywh-#25:503,3885,3918,887	*	*	*	*	*	*	*	*	*	*xywh-#19:515,3950,3760,732	*	*
1A,	-tu	.	1A	.	-tu	.	1c,	-tu	.	1e	-tu	.	(2cc\	Pa-	.
.	.	.	.	.	.	.	.	.	.	.	.	.	2a\)	.	.
2c\	Pa-	.	2c\	.	Pa-	.	2e\	Pa-	.	2e\	Pa-	.	2g\	.	.
=46	=46	=46	=46	=46	=46	=46	=46	=46	=46	=46	=46	=46	=46	=46	=46
1B	-ra-	.	1B	.	-ra-	.	1e	-ra-	.	1f#X	-ra-	.	1b	-ra-	.
2B\	-cli-	.	2B\	.	-cli-	.	2d#X\	-cli-	.	2f#\	-cli-	.	2b\	-cli-	.
=47	=47	=47	=47	=47	=47	=47	=47	=47	=47	=47	=47	=47	=47	=47	=47
1.E,	-to	.	1.E,	.	-to	.	1.e,	-to	.	1.e,	-to	.	1.b,	-to	.
=48	=48	=48	=48	=48	=48	=48	=48	=48	=48	=48	=48	=48	=48	=48	=48
2A\	nunc	.	2A\	.	nunc	.	2c#X\	nunc	.	2e\	nunc	.	2a\	nunc	.
2A\	et	.	2A\	.	et	.	2c#\	et	.	2e\	et	.	2a\	et	.
2D\	per	.	2D\	.	per	.	2d\	per	.	2fn\	per	.	2a\	per	.
=49	=49	=49	=49	=49	=49	=49	=49	=49	=49	=49	=49	=49	=49	=49	=49
1A	om-	.	1A	.	om-	.	1c#X	om-	.	1e	om-	.	1a	om-	.
2B-X\	-ne	.	2B-X\	.	-ne	.	2d\	-ne	.	2d\	-ne	.	2g\	-ne	.
!LO:LB:g=original	!	!	!	!	!	!	!	!	!	!	!	!	!	!	!
!LO:MO:mod==50	!	!	!	!	!	!	!	!	!	!	!	!	!	!	!
=50-	=50	=50	=50	=50	=50	=50	=50	=50	=50	=50	=50	=50	=50	=50	=50
*xywh-#27:510,3759,3746,698	*	*	*	*	*	*	*	*	*	*	*	*	*	*	*
2.A\	sae-	.	2.A\	.	sae-	.	2.c#X\	sae-	.	2.e\	sae-	.	2.a\	sae-	.
4A\	-cu-	.	4A\	.	-cu-	.	4c#\	-cu-	.	4e\	-cu-	.	4a\	-cu-	.
2D/	-lum	.	2D\	.	-lum	.	2d\	-lum	.	2f#X,\	-lum	.	2a\	-lum	.
!	!	!	!	!	!	!	!LO:LB:g=original	!	!	!	!	!	!	!	!
=51	=51	=51	=51	=51	=51	=51	=51	=51	=51	=51	=51	=51	=51	=51	=51
*	*	*	*	*	*	*	*xywh-#23:519,4331,3719,771	*	*	*	*	*	*	*	*
2G\	nunc	.	2G\	.	nunc	.	2B\	nunc	.	2g,\	nunc	.	2dd\	nunc	.
2G\	et	.	2G\	.	et	.	2B\	et	.	2g\	et	.	2.dd\	et	.
2G\	per	.	2G\	.	per	.	2B\	per	.	2g\	per	.	.	.	.
.	.	.	.	.	.	.	.	.	.	.	.	.	4dd\	per	.
!LO:MO:mod==52	!	!	!	!	!	!	!	!	!	!LO:LB:g=original	!	!	!	!	!
=52-	=52	=52	=52	=52	=52	=52	=52	=52	=52	=52	=52	=52	=52	=52	=52
*	*	*	*	*	*	*	*	*	*	*xywh-#21:535,3874,3747,744	*	*	*	*	*
2.C/	om-	.	2.C/	.	om-	.	1cn	om-	.	1g	om-	.	1ee	om-	.
4D\	.	.	4D\	.	.	.	.	.	.	.	.	.	.	.	.
2E\	-ne	.	2E\	.	-ne	.	2c\	-ne	.	2e\	-ne	.	2ee\	-ne	.
!	!	!	!LO:LB:g=original	!	!	!	!	!	!	!	!	!	!LO:LB:g=original	!	!
=53	=53	=53	=53	=53	=53	=53	=53	=53	=53	=53	=53	=53	=53	=53	=53
*	*	*	*xywh-#25:488,4436,3798,775	*	*	*	*	*	*	*	*	*	*xywh-#19:533,4481,3622,736	*	*
*	*ij	*	*	*	*	*	*	*ij	*	*	*	*	*	*	*
2A\	nunc	.	2A\	.	nunc	.	2c#X\	nunc	.	2e\	nunc	.	4ee\	nunc	.
.	.	.	.	.	.	.	.	.	.	.	.	.	4dd\	.	.
2A\	et	.	2A\	.	et	.	2c#\	et	.	2e\	et	.	(4ee\	et	.
!	!	!	!	!	!	!	!	!	!	!	!	!	!LO:SIC:v:s=4cc#	!	!
.	.	.	.	.	.	.	.	.	.	.	.	.	4cc\	.	.
2A\	per	.	2A\	.	per	.	2c#\	per	.	2e\	per	.	4dd\)	.	.
.	.	.	.	.	.	.	.	.	.	.	.	.	4ee\	per	.
!LO:MO:mod==54	!	!	!	!	!	!	!	!	!	!	!	!	!	!	!
=54-	=54	=54	=54	=54	=54	=54	=54	=54	=54	=54	=54	=54	=54	=54	=54
!	!	!	!	!	!	!	!	!LO:MO:mod=o-	!	!	!LO:MO:mod=o-	!	!	!LO:MO:mod=o-	!
4D\	o-	.	4D\	.	o-	.	(2d\	om-	.	1fn	om-	.	1dd	om-	.
4E\	.	.	4E\	.	.	.	.	.	.	.	.	.	.	.	.
4F\	.	.	4F\	.	.	.	2A\)	.	.	.	.	.	.	.	.
4D\	.	.	4D\	.	.	.	.	.	.	.	.	.	.	.	.
!	!	!	!	!	!	!	!	!LO:MO:mod=-mne	!	!	!LO:MO:mod=-mne	!	!	!LO:MO:mod=-mne	!
2A\	-mne	.	2A\	.	-mne	.	2A\	ne	.	2e\	-ne	.	2cc\	ne	.
*	*Xij	*	*	*	*	*	*	*Xij	*	*	*	*	*	*	*
=55	=55	=55	=55	=55	=55	=55	=55	=55	=55	=55	=55	=55	=55	=55	=55
2.E\	sae-	.	2.E\	.	sae-	.	2.G#X/	sae-	.	2.e\	sae-	.	2.b\	sae-	.
4E\	-cu-	.	4E\	.	-cu-	.	4G#/	-cu-	.	4e\	-cu-	.	4b\	-cu-	.
2AA/	-lum	.	2AA/	.	-lum	.	2A/	-lum	.	2e\	-lum.	.	2a\	-lum	.
=56||	=56||	=56||	=56||	=56||	=56||	=56||	=56||	=56||	=56||	=56||	=56||	=56||	=56||	=56||	=56||
1A	a-	.	1A	.	a-	.	1c	a-	.	(2.e\	a-	.	1a	a-	.
.	.	.	.	.	.	.	.	.	.	4f\)	.	.	.	.	.
1E	.	.	1E	.	-men	.	1e	-men	.	[<2g\	-men	.	[<2b\	-men	.
!LO:MO:mod==57	!	!	!LO:MO:mod==57	!	!	!	!LO:MO:mod==57	!	!	!	!	!	!	!	!
=57-	=57	=57	=57-	=57	=57	=57	=57-	=57	=57	=57	=57	=57	=57	=57	=57
.	.	.	.	.	.	.	.	.	.	2g,\]	.	.	2b\]	.	.
1A	.	.	1A	.	a-	.	1c	a-	.	1e	a-	.	1a	a-	.
!	!	!	!	!	!	!	!LO:MO:mod==58	!	!	!LO:MO:mod==58	!	!	!	!	!
=58	=58	=58	=58	=58	=58	=58	=58-	=58	=58	=58-	=58	=58	=58	=58	=58
0E;	-men.	.	0E;	.	-men.	.	0B;	-men	.	0e;	-men	.	0g#X;	-men.	.
==	==	==	==	==	==	==	==	==	==	==	==	==	==	==	==
*-	*-	*-	*-	*-	*-	*-	*-	*-	*-	*-	*-	*-	*-	*-	*-
!!!system-decoration: [(s1,s2,s3,s4)]s5
!!!RDF**kern: < = below
!!!filter-modern: sic -sq | shed -e "s/^(\d+[\/\\]right)/$1yy/I; s/^(\d+[\/\\]left)/$1yy/I" | shed -e "s/^custos:/Xcustos:/I" | modori -m | autostem -r | tie -s | shed -k -e "s/[<>]//g" | humtr -p
!!!ENC: Marta Lawrence
!!!END: 2021-02-22
!!!ENC: Marcin Jachim
!!!END: 2021-02-04
!!!ENC-modern: Andrzej Borzym
!!!END-modern: 2022-07-06
!!!IIIF: https://repozytorium.nifc.pl/islandora/object/pl-kk%3A5647/datastream/IIIF/view
!!!ENC-iiif: Mateusz Mrugas
!!!END-iiif: 2022-09-01
!!!YEC: Copyright 2022 Narodowy Instytut Fryderyka Chopina (https://polishscores.org)
!!!YEM: Licence CC BY 4.0 (https://creativecommons.org/licenses/by/4.0)
